!!!COM: Jules Massenet
!!!CNT: Francais
!!!TXO: Francais
!!!OTL: Sonnet Pai2en
!!!LYR: Armand Silvestre
!!!ENC: Jacob Pegg
!!!YOR: Romantic French Song 1830-1870 - David Tunley, ed.,
!!!YOR: New York: Garland Publishing, Inc., 1995, Vol. 6
!!!ODT: 1869/
!!NB: Vocal melody and text only encoded.
!!NB: First instance of melodic material only encoded.
**kern	**silbe
*clef G2	*
*k[b-e-a-]	*
*M6/8	*
!!created: 1/22/04 12:40
!!proofed and posted: 1/24/04 22:05
!!edit time: 81 min.
=9	=9
4r	.
8r	.
4r	.
{8g	{Ro-
=10	=10
[4.b-	-sa,
4b-]	|
8b-	Ro-
=11	=11
[4.cc	-sa,
4cc]}	|}
8r	.
=12	=12
{4.ee-	{l'air
4b-	est
8ee-	plus
=13	=13
2.dd}	doux,}
=14	=14
{4.cc	{l'air
4g	est
8cc	plus
=15	=15
[4.b-	doux
8b-]}	|}
8r	.
{8e-	{qui
=16	=16
(8g	bai-
8b-)	|
8dd	-gne
4cc	ta
8b-	poi-
=17	=17
2.b-	-tri-
=18	=18
4.a-	|
(b-q	|
a-q	|
4g)	|
8f	|
=19	=19
[4.g	-ne;
4g]}	|}
8r	.
=20	=20
4r	.
8r	.
4r	.
{8e-	{A-
=21	=21
4f	-vril
8f	em-
(8f	-plit
8g)	|
8a-	d'o-
=22	=22
[4.cc	-deurs
8cc]	|
8a-	les
8cc	feuil-
=23	=23
[(2.ee-	-la-
=24	=24
4ee-]	|
8b-)	|
4a-	-ges
8g	om-
=25	=25
4.b-}	-breux.}
8r	.
{8b-	{Tout
8b-	re-
=26	=26
[2.dd	-nai^t,
=27	=27
4dd]}	|}
8r	.
{4een	{Tout
8dd	re-
=28	=28
4.g	-nai^t,
4an	et
8d	le
=29	=29
4.bn	long
4an	des
8d	sen-
=30	=30
4.dd	-tiers
(8dd	a-
8cc#)	|
8dd	-mou-
=31	=31
[2.ff	-reux,
=32	=32
4.ff_	|
4ff]}	|}
{8ff	{Par-
=33	=33
2.ee-	-tout
=34	=34
4.b-	sai-
4b-	-gne
8ee-	la
=35	=35
[4.dd	rose
4dd]	|
8g	et
=36	=36
4.cc	nei-
8g	-ge
8g	l'au-
8cc	-be/-
=37	=37
[2.b-	-pi-
=38	=38
2.b-]	|
=39	=39
4e-}	-ne!}
8r	.
4r	.
8r	.
=40	=40
4r	.
8r	.
4r	.
{8g	{La
=41	=41
[2.a-	fleur
=42	=42
4a-]	|
8a-	sous
4a-	les
8b-	bois-
=43	=43
[2.a-	-sons
=44	=44
4.a-]}	|}
4r	.
{8a-	{en-
=45	=45
[2.g	-tr'ouvre
=46	=46
4g]	|
8g	un
4g	oeil
8e-	peu-
=47	=47
[2.g	-reux
=48	=48
4.g]}	|}
4r	.
{8cc	{Et
=49	=49
[2.cc	livre
=50	=50
4cc]	|
8cc	au
(8cc	vent
8ee-)	|
8cc	du
=51	=51
[2.ee-	soir,
=52	=52
4ee-]	|
8e-	au
(8e-	vent
8g)	|
8e-	du
=53	=53
[2.g	soir,
=54	=54
2.g]}	|}
=55	=55
4r	.
8r	.
{[4.een	{l'or
=56	=56
4een]	|
8cc	de
8g	son
8f	e/-
8en	-ta-
=57	=57
(2.cc	-mi-
=58	=58
2.g	|
=59	=59
[4.c	-ne;
4c])}	|}
8r	.
=60	=60
4r	.
8r	.
4r	.
{8cc	{Tout
=61	=61
(2.dd-	ai-
=62	=62
4cc)}	-me!}
8r	.
4r	.
{8cc	{tout
=63	=63
(2.ff	ai-
=64	=64
4een)}	-me!}
8r	.
4r	.
8r	.
=65	=65
{[2.ff	{Viens,
=66	=66
4.ff_	|
4ff]	|
8ff	Ro-
=67	=67
[4.gg-	-sa!
4gg-]}	|}
8r	.
=68	=68
{[4.dd-	{viens!
8dd-]	|
8dd-	les
8dd-	a-
=69	=69
4.ee-	-mants
4b-	sont
8ee-	heu-
=70	=70
[4.dd-	-reux
8dd-]}	|}
8r	.
{8g-	{A
=71	=71
4.cc-	l'om-
8g-	-bre
8g-	du
8cc-	grand
=72	=72
[4.b-	bois
8b-]}	|}
8r	.
{8b-	{qui
=73	=73
[2.ddn	pend
=74	=74
4ddn]	|
8b-	a\
(8b-	la
8gn)	|
8b-	col-
=75	=75
(2.f	-li-
=76	=76
2.e-	|
=77	=77
4d)}	-ne!}
8r	.
4r	.
8r	.
!!mm 78-87 repeat melodic material
=88	=88
*M4/4	*
4r	.
{8b-	{Mais,
8b-	Ro-
4b-	-sa
8b-	la
8b-	pre^-
=89	=89
8a-	-tres-
8g-}	-se}
8r	.
{8g-	{i-
8g-	-gno-
8g-	-re
8g-	les
8g-	fris-
=90	=90
(4.b-	-sons
8dd-	Qu'av-
4.ee-	-ril
8ee-	nous
=91	=91
8b-	por-
8b-	-te a-
8b-	-vec
8b-	ses
8a-	blan-
8a-	-ches
8a-	flor-
8a-	-ai-
=92	=92
[2b-)	-sons...
4b-]}	|}
6r	.
{12b-	{Ja-
=93	=93
6ee-	-mais
12b-	les
6b-	doux
12ee-	ga-
4dd	-zons
6g	n'ont
12g	bai-
=94	=94
4cc	-se/
6g	sa
12cc	san-
2b-	-da-
=95	=95
4e-}	-le.}
4r	.
2r	.
=96	=96
4r	.
{8.f	{Des
16f	te/-
4a-	-ne\-
8a-	-bres
8a-	du
=97	=97
4g	tem-
8g	-ple el-
8g	-le
4g-	cher-
8.g-	-che
16g-	l'hor-
=98	=98
2f}	-reur,}
4r	.
{8f-	{Et
8f-	du
=99	=99
[4f-	feu
12f-]	|
12a-	qui
12cc-	nous
(2ff-	bru^-
=100	=100
8a-)}	-le,}
8r	.
{8a-	{im-
8a-	-mo-
4a-	-bi-
8a-	-le
8a-	ves-
=101	=101
(2g-	-ta-
4f-)}	-le,}
4r	.
=102	=102
{2f-	{Gar-
8f-	-de
8f-	com-
8a-	-me un
8f-	au-
=103	=103
2e-	-tel
4.e-	le
8e-	tom-
=104	=104
2e-	-beau
4.e-	de
8e-	son
=105	=105
[1B-	coeur.
=106	=106
1B-_	|
=107	=107
4B-]}	|}
4r	.
2r	.
*-	*-
